X: 28438
T: Mullingar Lea, The
R: reel
M: 4/4
K: Gmixolydian
BGdG GFDE|F2AF CFAc|BGdG GFDE|1 FAdc BGGA:|2 FAdc BGBd||
|:gfgd Bcde|fefc ABcA|1 gfgd Bc cA|dgfa g3^f:|2 fdcA D3E|FAdc BGGA||

